X:142
T: SUESSE HEILIGE NATUR
N: B0171
O: Europa, Mitteleuropa, Deutschland
R: Natur - Lied
M: 2/4
L: 1/16
K: Eb
G3F | E3EDEFG | F2E2
B2G2 | B2G2FGAB | A2G2
edcB | B2G2c2BA | G2F2
BGE2 | cAF2E2DF | F2E2

